X: 6460
T: Cat In The Corner, The
R: slide
M: 12/8
K: Gmajor
|:A|B2 e d2 B BAB d2 B|BAB d2 B A3 AGA|
B2 e d2 B BAB d2 B|1 BAB d2 B G3 G2:|2 BAB d2 B G3 GB/c/d||
|:e3 e2 d e2 f g3|BAB d2 B A3 ABd|
efe edB e2 f g2 B|1 BAB d2 B G3 GBd:|2 BAB d2 B G3- G2||

